icons/hash-24.svg

<svg width="24" height="24" viewBox="0 0 24 24" fill="none" xmlns="http://www.w3.org/2000/svg">
<path fill-rule="evenodd" clip-rule="evenodd" d="M9.61849 1.75953C10.0275 1.82497 10.306 2.20959 10.2406 2.6186L9.45955 7.5H15.9405L16.7594 2.38162C16.8249 1.97261 17.2095 1.69409 17.6185 1.75953C18.0275 1.82497 18.306 2.20959 18.2406 2.6186L17.4596 7.5H21.25C21.6642 7.5 22 7.83579 22 8.25C22 8.66421 21.6642 9 21.25 9H17.2196L16.2596 15H20.2499C20.6642 15 20.9999 15.3358 20.9999 15.75C20.9999 16.1642 20.6642 16.5 20.2499 16.5H16.0196L15.2406 21.3686C15.1751 21.7776 14.7905 22.0561 14.3815 21.9907C13.9725 21.9252 13.694 21.5406 13.7594 21.1316L14.5005 16.5H8.01955L7.24058 21.3686C7.17514 21.7776 6.79051 22.0561 6.3815 21.9907C5.97249 21.9252 5.69397 21.5406 5.75942 21.1316L6.50047 16.5H2.74518C2.33096 16.5 1.99518 16.1642 1.99518 15.75C1.99518 15.3358 2.33096 15 2.74518 15H6.74048L7.70048 9H3.75C3.33579 9 3 8.66421 3 8.25C3 7.83579 3.33579 7.5 3.75 7.5H7.94047L8.75942 2.38162C8.82486 1.97261 9.20948 1.69409 9.61849 1.75953ZM14.7405 15L15.7005 9H9.21955L8.25955 15H14.7405Z" fill="black"/>
</svg>

<svg xmlns="http://www.w3.org/2000/svg" width="24" height="24" viewBox="0 0 24 24"><path fill-rule="evenodd" d="M9.618 1.76a.75.75 0 01.623.859L9.46 7.5h6.48l.82-5.118a.75.75 0 011.48.237L17.46 7.5h3.79a.75.75 0 010 1.5h-4.03l-.96 6h3.99a.75.75 0 110 1.5h-4.23l-.78 4.869a.75.75 0 01-1.48-.237l.74-4.632H8.02l-.78 4.869a.75.75 0 01-1.48-.237L6.5 16.5H2.745a.75.75 0 010-1.5H6.74l.96-6H3.75a.75.75 0 010-1.5h4.19l.82-5.118a.75.75 0 01.858-.622zM14.741 15l.96-6H9.22l-.96 6h6.48z"/></svg>
